X: 306
T: Reel Joseph
C: Marcel Messervier
R: reel
Z: 2009 John Chambers <jc:trillian.mit.edu>
S: printedMS of unknown origin
M: C|
L: 1/8
K: D
|:"D"f4 fafd | A2F2 E2{FE}D2 | "G"G2DG GDGB | "Em"d4 "E7"dedB | "A"c4 cAce |
| a2g2 f2e2 |[1 "D"d2cd fedc | "A"B2{cB}A2 FAde :| |[2 "D"d2A2 "A"BcBA | "D"d4 d2 |]
K: A
|: cd \
| "A"e2ce a2de | efed c4 | "E7"BABc d2B2 | "A"AEAB cBAc |
| "A"e2ce a2de | efed c4 | "Bm"BABc "E7"d2B2 |1 "A"ABcB A2 :|2 "A"A4 "A7"FAde |]

%%newpage

